X:134200
T:Dream Valley of Glenderuel
C:
B:
O:Arranged by Kevin Fraser
Z:Kevin Fraser
H:
Q:1/4=78
M:3/4
L:1/8
R:March
K:HP
I:MIDI=program 110
U: R = ///
U: r = //
U: V = !accent!
%%Didn't work :(
%%U: tra = {Gdc}d
%%macros are supposed to affect how something is played, but doesn't affect typesetting :(  
%%m: ~ta={Gdc}d  
V:M gstem=up stem=down name="Melody"
V:H gstem=up stem=down name="Harmony"
V:C gstem=up stem=down name="C-Harmony"
V:S gstem=up stem=down dyn=up stafflines=1 clef=perc middle=G name="Snare" sname="Snare"" sname="Snare"
V:B gstem=up stem=down clef=none dyn=up name="Bass"
V:T gstem=up stem=down clef=none dyn=up name="Tenor"
V:BB gstem=up stem=down name="Brass Bass" sname="ABCD-C" transpose=-1  octave=-1 clef=bass
V:BC gstem=up stem=down name="Brass Chord" sname="ABCD-D" transpose=-1
V:BD gstem=up stem=down name="Brass Chord 2" sname="ABCD-B" transpose=-1
V:P gstem=up stem=down name="Piano" octave=-1
V:M gstem=up stem=down name="Melody"
%%MIDI program 109 #bagpipes
%%MIDI vol 100
%%landscape
[V:M] [|: {g}A>B {Gdc}d2 {e}A2 | {g}f>g {ag}a2 {Gdc}d2 | {g}e>f {gf}g2 {BG}B2  | {gfg}fd {gfg}f2 {gef}e2 | $
[V:M]    {g}f>e {Gdc}df {AGAG}A2 | {ag}ag {a}fa {Gdc}d2 | {gde}d>c {gBd}B2 {e}Gf | {gef}e>c {Gdc}d4 :|] $ 
[V:M] [|: {g}f>g {ag}a2 {Gdc}d2 | {gf}gf {gfg}f2 {g}e2 | {g}fg {ag}a2 {Gdc}d>c | {gBd}Be {gcd}c2 {e}B2 | $
[V:M]    {g}f>e {Gdc}df {AGAG}A2 | {ag}ag {a}fa {Gdc}d2 | {gef}e>d {gBd}B2 {e}Gf | {gef}e>c {Gdc}d4 :|] $ 

